X:110
T:Jigs 10 - Muineira De Lugo*
R:jig
M:6/8
L:1/8
K:Dmaj
T: Muineira
DFA dcB | AGF D3 | DFA dcB | AGF E3- | EFG A2F |
G2E F2D | A2d cBA | GFE D3- :| D2FD2D | D2F D2D |
DED C2C | CDE F2D- | D2F D2D- | DEF G3- | GAG FGF | EFE D2 :|
T:Muineira De Lugo
|: dc | A3- Adc | A3- Adc | ABA GFG | B A2- Adc |
A3- Adc | A3- Adc | ABA GFE | [1 D3- D :| [2 D3- DFE ||
|: F2 G AGF | E3- EGF | G2 A BAG | F3 F2 ^E |
F2 G AGF | E3- EA^G | ABA GFE | [1 D3- DFE :| [2 D3- D ||
%%newpage

